X:109
T:Ridotto al Fresco THO3.109
O:England;London
M:2/4
L:1/8
Z:vmp. Peter Dunk 2011.from a transcription by Fynn Titford-Mock 2006-9
B:Thompson's Compleat Collection of 200 Favourite Country Dances Vol. III.1765-72
Q:1/4=120
K:D
d|e/g/e/c/ df|e/g/e/c/ dA|BABc|d/c/d/e/ df|e/g/e/c/ df|e/g/e/c/ dA|BABc|d3:|
|:g|f/a/f/d/ f/a/f/d/|f/a/g/b/ eg|f/a/f/d/ f/a/f/d/|e/a/e/c/ Ag|\
f/a/f/d/ f/a/f/d/|f/a/g/b/ eg|f/a/f/d/ e/g/e/c/|d3:|

